assets/googleantigravity/original.svg

<svg fill="none" height="15" viewBox="0 0 16 15" width="16" xmlns="http://www.w3.org/2000/svg" xmlns:xlink="http://www.w3.org/1999/xlink"><filter id="a" color-interpolation-filters="sRGB" filterUnits="userSpaceOnUse" height="11.383" width="12.839" x="-2.128" y="-8.36"><feFlood flood-opacity="0" result="BackgroundImageFix"/><feBlend in="SourceGraphic" in2="BackgroundImageFix" result="shape"/><feGaussianBlur result="effect1_foregroundBlur_111_52" stdDeviation=".723"/></filter><filter id="b" color-interpolation-filters="sRGB" filterUnits="userSpaceOnUse" height="24.96" width="25.176" x="2.752" y="-9.381"><feFlood flood-opacity="0" result="BackgroundImageFix"/><feBlend in="SourceGraphic" in2="BackgroundImageFix" result="shape"/><feGaussianBlur result="effect1_foregroundBlur_111_52" stdDeviation="3.495"/></filter><filter id="c" color-interpolation-filters="sRGB" filterUnits="userSpaceOnUse" height="23.634" width="26.507" x="-14.167" y="-7.502"><feFlood flood-opacity="0" result="BackgroundImageFix"/><feBlend in="SourceGraphic" in2="BackgroundImageFix" result="shape"/><feGaussianBlur result="effect1_foregroundBlur_111_52" stdDeviation="2.971"/></filter><filter id="d" color-interpolation-filters="sRGB" filterUnits="userSpaceOnUse" height="23.634" width="26.507" x="-14.167" y="-7.502"><feFlood flood-opacity="0" result="BackgroundImageFix"/><feBlend in="SourceGraphic" in2="BackgroundImageFix" result="shape"/><feGaussianBlur result="effect1_foregroundBlur_111_52" stdDeviation="2.971"/></filter><filter id="e" color-interpolation-filters="sRGB" filterUnits="userSpaceOnUse" height="23.685" width="23.709" x="-12.361" y="-7.3"><feFlood flood-opacity="0" result="BackgroundImageFix"/><feBlend in="SourceGraphic" in2="BackgroundImageFix" result="shape"/><feGaussianBlur result="effect1_foregroundBlur_111_52" stdDeviation="2.971"/></filter><filter id="f" color-interpolation-filters="sRGB" filterUnits="userSpaceOnUse" height="22.062" width="21.703" x=".635" y="5.021"><feFlood flood-opacity="0" result="BackgroundImageFix"/><feBlend in="SourceGraphic" in2="BackgroundImageFix" result="shape"/><feGaussianBlur result="effect1_foregroundBlur_111_52" stdDeviation="2.824"/></filter><filter id="g" color-interpolation-filters="sRGB" filterUnits="userSpaceOnUse" height="22.831" width="23.286" x="-3.975" y="-14.667"><feFlood flood-opacity="0" result="BackgroundImageFix"/><feBlend in="SourceGraphic" in2="BackgroundImageFix" result="shape"/><feGaussianBlur result="effect1_foregroundBlur_111_52" stdDeviation="2.559"/></filter><filter id="h" color-interpolation-filters="sRGB" filterUnits="userSpaceOnUse" height="30.11" width="29.198" x="-7.741" y="-.945"><feFlood flood-opacity="0" result="BackgroundImageFix"/><feBlend in="SourceGraphic" in2="BackgroundImageFix" result="shape"/><feGaussianBlur result="effect1_foregroundBlur_111_52" stdDeviation="2.285"/></filter><filter id="i" color-interpolation-filters="sRGB" filterUnits="userSpaceOnUse" height="15.568" width="16.241" x="6.786" y="-.272"><feFlood flood-opacity="0" result="BackgroundImageFix"/><feBlend in="SourceGraphic" in2="BackgroundImageFix" result="shape"/><feGaussianBlur result="effect1_foregroundBlur_111_52" stdDeviation="2.045"/></filter><filter id="j" color-interpolation-filters="sRGB" filterUnits="userSpaceOnUse" height="19.421" width="21.687" x="3.775" y="-8.717"><feFlood flood-opacity="0" result="BackgroundImageFix"/><feBlend in="SourceGraphic" in2="BackgroundImageFix" result="shape"/><feGaussianBlur result="effect1_foregroundBlur_111_52" stdDeviation="1.727"/></filter><filter id="k" color-interpolation-filters="sRGB" filterUnits="userSpaceOnUse" height="16.925" width="14.364" x="-5.407" y="-6.392"><feFlood flood-opacity="0" result="BackgroundImageFix"/><feBlend in="SourceGraphic" in2="BackgroundImageFix" result="shape"/><feGaussianBlur result="effect1_foregroundBlur_111_52" stdDeviation="2.138"/></filter><mask id="l" height="15" maskUnits="userSpaceOnUse" width="16" x="0" y="0"><path d="m14.078 13.984c.867.65 2.168.217.975-.976-3.577-3.468-2.818-13.008-7.263-13.008-4.444 0-3.685 9.54-7.263 13.008-1.3 1.301.109 1.627.976.976 3.36-2.276 3.144-6.287 6.287-6.287 3.144 0 2.927 4.01 6.288 6.287" fill="#000"/></mask><g mask="url(#l)"><g filter="url(#a)"><path d="m-.659-3.23c-.264 2.322 1.739 4.458 4.473 4.768s5.164-1.321 5.428-3.645-1.739-4.459-4.473-4.77-5.164 1.324-5.428 3.647" fill="#ffe432"/></g><g filter="url(#b)"><path d="m9.882 4.366c.685 2.95 3.684 4.773 6.698 4.073s4.902-3.658 4.217-6.608-3.683-4.771-6.697-4.071-4.903 3.657-4.218 6.606" fill="#fc413d"/></g><g filter="url(#c)"><path d="m-8.053 6.345c.866 3.044 4.764 4.602 8.707 3.481s6.438-4.498 5.572-7.541-4.764-4.603-8.707-3.481-6.437 4.496-5.572 7.541" fill="#00b95c"/></g><g filter="url(#d)"><path d="m-8.053 6.345c.866 3.044 4.764 4.602 8.707 3.481s6.438-4.498 5.572-7.541-4.764-4.603-8.707-3.481-6.437 4.496-5.572 7.541" fill="#00b95c"/></g><g filter="url(#e)"><path d="m-4.924 8.867c2.17 2.217 5.907 2.077 8.347-.312s2.657-6.122.489-8.338-5.907-2.076-8.347.312c-2.44 2.39-2.659 6.122-.489 8.338" fill="#00b95c"/></g><g filter="url(#f)"><path d="m6.428 17.226c.674 2.901 3.485 4.727 6.278 4.078 2.794-.649 4.512-3.526 3.838-6.427s-3.484-4.727-6.278-4.078-4.512 3.526-3.838 6.427" fill="#3186ff"/></g><g filter="url(#g)"><path d="m1.665-5.945c-1.41 3.142.133 6.897 3.448 8.385s7.146.146 8.557-2.996c1.41-3.143-.133-6.897-3.448-8.386s-7.146-.146-8.557 2.997" fill="#fbbc04"/></g><g filter="url(#h)"><path d="m-2.114 24.39c-3.416-1.34 2.421-12.372 3.873-16.07 1.451-3.697 5.397-5.607 8.811-4.266 3.416 1.34 7.464 8.726 6.013 12.423s-15.283 9.254-18.697 7.913" fill="#3186ff"/></g><g filter="url(#i)"><path d="m18.581 10.66c-.914 1.067-3.3.523-5.33-1.216-2.029-1.738-2.932-4.013-2.018-5.08s3.3-.523 5.33 1.215c2.029 1.739 2.933 4.013 2.018 5.08" fill="#749bff"/></g><g filter="url(#j)"><path d="m11.755 5.227c3.761 2.544 8.092 2.711 9.674.373s-.186-6.295-3.947-8.84c-3.76-2.543-8.092-2.71-9.673-.373-1.582 2.338.185 6.296 3.946 8.84" fill="#fc413d"/></g><g filter="url(#k)"><path d="m-.592 1.089c-.932 2.248-.628 4.509.68 5.05 1.307.543 3.122-.84 4.053-3.088.932-2.247.628-4.509-.68-5.05-1.305-.544-3.121.839-4.052 3.087" fill="#ffee48"/></g></g></svg>

<svg xmlns="http://www.w3.org/2000/svg" width="16" height="15" fill="none" viewBox="0 0 16 15"><mask id="mask0_111_52" width="16" height="15" x="0" y="0" maskUnits="userSpaceOnUse" style="mask-type:alpha"><path fill="#000" d="M14.078 13.984c.867.65 2.168.217.975-.976C11.476 9.54 12.235 0 7.79 0 3.346 0 4.105 9.54.527 13.008c-1.3 1.301.109 1.627.976.976 3.36-2.276 3.144-6.287 6.287-6.287 3.144 0 2.927 4.01 6.288 6.287"/></mask><g mask="url(#mask0_111_52)"><g filter="url(#filter0_f_111_52)"><path fill="#ffe432" d="M-.659-3.23C-.923-.908 1.08 1.228 3.814 1.538S8.978.217 9.242-2.107s-1.739-4.459-4.473-4.77S-.395-5.553-.659-3.23"/></g><g filter="url(#filter1_f_111_52)"><path fill="#fc413d" d="M9.882 4.366c.685 2.95 3.684 4.773 6.698 4.073s4.902-3.658 4.217-6.608S17.114-2.94 14.1-2.24 9.197 1.417 9.882 4.366"/></g><g filter="url(#filter2_f_111_52)"><path fill="#00b95c" d="M-8.053 6.345c.866 3.044 4.764 4.602 8.707 3.481s6.438-4.498 5.572-7.541-4.764-4.603-8.707-3.481S-8.918 3.3-8.053 6.345"/></g><g filter="url(#filter3_f_111_52)"><path fill="#00b95c" d="M-8.053 6.345c.866 3.044 4.764 4.602 8.707 3.481s6.438-4.498 5.572-7.541-4.764-4.603-8.707-3.481S-8.918 3.3-8.053 6.345"/></g><g filter="url(#filter4_f_111_52)"><path fill="#00b95c" d="M-4.924 8.867c2.17 2.217 5.907 2.077 8.347-.312S6.08 2.433 3.912.217s-5.907-2.076-8.347.312c-2.44 2.39-2.659 6.122-.489 8.338"/></g><g filter="url(#filter5_f_111_52)"><path fill="#3186ff" d="M6.428 17.226c.674 2.901 3.485 4.727 6.278 4.078 2.794-.649 4.512-3.526 3.838-6.427s-3.484-4.727-6.278-4.078-4.512 3.526-3.838 6.427"/></g><g filter="url(#filter6_f_111_52)"><path fill="#fbbc04" d="M1.665-5.945C.255-2.803 1.798.952 5.113 2.44s7.146.146 8.557-2.996c1.41-3.143-.133-6.897-3.448-8.386s-7.146-.146-8.557 2.997"/></g><g filter="url(#filter7_f_111_52)"><path fill="#3186ff" d="M-2.114 24.39C-5.53 23.05.307 12.018 1.759 8.32 3.21 4.623 7.156 2.713 10.57 4.054c3.416 1.34 7.464 8.726 6.013 12.423S1.3 25.731-2.114 24.39"/></g><g filter="url(#filter8_f_111_52)"><path fill="#749bff" d="M18.581 10.66c-.914 1.067-3.3.523-5.33-1.216-2.029-1.738-2.932-4.013-2.018-5.08s3.3-.523 5.33 1.215c2.029 1.739 2.933 4.013 2.018 5.08"/></g><g filter="url(#filter9_f_111_52)"><path fill="#fc413d" d="M11.755 5.227c3.761 2.544 8.092 2.711 9.674.373s-.186-6.295-3.947-8.84c-3.76-2.543-8.092-2.71-9.673-.373-1.582 2.338.185 6.296 3.946 8.84"/></g><g filter="url(#filter10_f_111_52)"><path fill="#ffee48" d="M-.592 1.089c-.932 2.248-.628 4.509.68 5.05 1.307.543 3.122-.84 4.053-3.088.932-2.247.628-4.509-.68-5.05C2.156-2.543.34-1.16-.591 1.088"/></g></g><defs><filter id="filter0_f_111_52" width="12.839" height="11.383" x="-2.128" y="-8.36" color-interpolation-filters="sRGB" filterUnits="userSpaceOnUse"><feFlood flood-opacity="0" result="BackgroundImageFix"/><feBlend in="SourceGraphic" in2="BackgroundImageFix" result="shape"/><feGaussianBlur result="effect1_foregroundBlur_111_52" stdDeviation=".723"/></filter><filter id="filter1_f_111_52" width="25.176" height="24.96" x="2.752" y="-9.381" color-interpolation-filters="sRGB" filterUnits="userSpaceOnUse"><feFlood flood-opacity="0" result="BackgroundImageFix"/><feBlend in="SourceGraphic" in2="BackgroundImageFix" result="shape"/><feGaussianBlur result="effect1_foregroundBlur_111_52" stdDeviation="3.495"/></filter><filter id="filter2_f_111_52" width="26.507" height="23.634" x="-14.167" y="-7.502" color-interpolation-filters="sRGB" filterUnits="userSpaceOnUse"><feFlood flood-opacity="0" result="BackgroundImageFix"/><feBlend in="SourceGraphic" in2="BackgroundImageFix" result="shape"/><feGaussianBlur result="effect1_foregroundBlur_111_52" stdDeviation="2.971"/></filter><filter id="filter3_f_111_52" width="26.507" height="23.634" x="-14.167" y="-7.502" color-interpolation-filters="sRGB" filterUnits="userSpaceOnUse"><feFlood flood-opacity="0" result="BackgroundImageFix"/><feBlend in="SourceGraphic" in2="BackgroundImageFix" result="shape"/><feGaussianBlur result="effect1_foregroundBlur_111_52" stdDeviation="2.971"/></filter><filter id="filter4_f_111_52" width="23.709" height="23.685" x="-12.361" y="-7.3" color-interpolation-filters="sRGB" filterUnits="userSpaceOnUse"><feFlood flood-opacity="0" result="BackgroundImageFix"/><feBlend in="SourceGraphic" in2="BackgroundImageFix" result="shape"/><feGaussianBlur result="effect1_foregroundBlur_111_52" stdDeviation="2.971"/></filter><filter id="filter5_f_111_52" width="21.703" height="22.062" x=".635" y="5.021" color-interpolation-filters="sRGB" filterUnits="userSpaceOnUse"><feFlood flood-opacity="0" result="BackgroundImageFix"/><feBlend in="SourceGraphic" in2="BackgroundImageFix" result="shape"/><feGaussianBlur result="effect1_foregroundBlur_111_52" stdDeviation="2.824"/></filter><filter id="filter6_f_111_52" width="23.286" height="22.831" x="-3.975" y="-14.667" color-interpolation-filters="sRGB" filterUnits="userSpaceOnUse"><feFlood flood-opacity="0" result="BackgroundImageFix"/><feBlend in="SourceGraphic" in2="BackgroundImageFix" result="shape"/><feGaussianBlur result="effect1_foregroundBlur_111_52" stdDeviation="2.559"/></filter><filter id="filter7_f_111_52" width="29.198" height="30.11" x="-7.741" y="-.945" color-interpolation-filters="sRGB" filterUnits="userSpaceOnUse"><feFlood flood-opacity="0" result="BackgroundImageFix"/><feBlend in="SourceGraphic" in2="BackgroundImageFix" result="shape"/><feGaussianBlur result="effect1_foregroundBlur_111_52" stdDeviation="2.285"/></filter><filter id="filter8_f_111_52" width="16.241" height="15.568" x="6.786" y="-.272" color-interpolation-filters="sRGB" filterUnits="userSpaceOnUse"><feFlood flood-opacity="0" result="BackgroundImageFix"/><feBlend in="SourceGraphic" in2="BackgroundImageFix" result="shape"/><feGaussianBlur result="effect1_foregroundBlur_111_52" stdDeviation="2.045"/></filter><filter id="filter9_f_111_52" width="21.687" height="19.421" x="3.775" y="-8.717" color-interpolation-filters="sRGB" filterUnits="userSpaceOnUse"><feFlood flood-opacity="0" result="BackgroundImageFix"/><feBlend in="SourceGraphic" in2="BackgroundImageFix" result="shape"/><feGaussianBlur result="effect1_foregroundBlur_111_52" stdDeviation="1.727"/></filter><filter id="filter10_f_111_52" width="14.364" height="16.925" x="-5.407" y="-6.392" color-interpolation-filters="sRGB" filterUnits="userSpaceOnUse"><feFlood flood-opacity="0" result="BackgroundImageFix"/><feBlend in="SourceGraphic" in2="BackgroundImageFix" result="shape"/><feGaussianBlur result="effect1_foregroundBlur_111_52" stdDeviation="2.138"/></filter></defs></svg>
